assets/images/svg/opps.svg

<svg width="168" height="171" viewBox="0 0 168 171" fill="none" xmlns="http://www.w3.org/2000/svg">
<path d="M156.9 1.4L165.6 6.2C166.9 7 168 8.9 168 10.4V91.5C168 93 167 94.9 165.6 95.7L36.6 170.1C35.3 170.8 33.1 170.8 31.8 170.1L23.1 165.2C21.7 164.5 20.6 162.6 20.6 161V80C20.6 78.4 21.7 76.5 23.1 75.8L152 1.4C153.4 0.600003 155.6 0.600003 156.9 1.4V1.4Z" fill="#33BFBF"/>
<path d="M34.2 168.7V87.6C34.2 86 35.3 84.2 36.6 83.4L165.6 8.99999C167 8.19999 168 8.89999 168 10.4V91.5C168 93 167 94.9 165.6 95.7L36.6 170.1C35.3 170.8 34.2 170.2 34.2 168.7V168.7Z" fill="#33BFBF"/>
<path opacity="0.2" d="M36.6 170.1C35.2 170.9 33 170.8 31.8 170.1L23.1 165.2C21.7 164.5 20.6 162.6 20.6 161V80C20.6 79.1 20.9 78.3 21.4 77.5L34.9 85.2C34.5 85.9 34.2 86.8 34.2 87.6V168.7C34.2 170.1 35.2 170.9 36.6 170.1Z" fill="black"/>
<path opacity="0.4" d="M168 10C167.8 8.8 166.8 8.3 165.6 9L36.7 83.4C36 83.8 35.4 84.4 34.9 85.2L21.4 77.5C21.8 76.8 22.4 76.1 23.1 75.8L152 1.4C153.4 0.600003 155.5 0.600003 156.9 1.4L165.6 6.2C166.8 6.9 167.8 8.5 168 10V10Z" fill="white"/>
<path d="M34.2 116.6L15 139.7C15 139.7 1.9 132.2 1.5 131.9C0.399996 131.3 0.100002 129.7 1.1 128.6L20.6 108.8L34.2 116.6Z" fill="#33BFBF"/>
<path opacity="0.1" d="M34.2 116.6L15 139.7C15 139.7 1.9 132.2 1.5 131.9C0.399996 131.3 0.100002 129.7 1.1 128.6L20.6 108.8L34.2 116.6Z" fill="black"/>
<path d="M34.2 137.5L16.5 140.1C14.5 140.4 13.3 137.9 14.7 136.4L34.2 116.6C36.1 116.6 36.1 137.5 34.2 137.5Z" fill="#33BFBF"/>
<path fill-rule="evenodd" clip-rule="evenodd" d="M50 110C50.0667 107.733 50.4 105.467 51 103.2C51.5333 100.933 52.3 98.7666 53.3 96.7C54.3667 94.7 55.6 92.8333 57 91.1C58.4667 89.4333 60.1667 88.0667 62.1 87C63.9667 85.8667 65.6333 85.3 67.1 85.3C68.5667 85.3 69.8 85.7333 70.8 86.6C71.8667 87.4667 72.6667 88.7333 73.2 90.4C73.7333 92 74.0333 93.9 74.1 96.1C74.1667 97.7667 74.2 99.5333 74.2 101.4C74.2 103.267 74.1667 105.033 74.1 106.7C74.0333 108.967 73.7333 111.233 73.2 113.5C72.6667 115.767 71.8667 117.933 70.8 120C69.8 122.067 68.5667 123.933 67.1 125.6C65.6333 127.333 63.9667 128.733 62.1 129.8C60.1667 130.867 58.4667 131.4 57 131.4C55.6 131.467 54.3667 131.033 53.3 130.1C52.3 129.233 51.5333 127.967 51 126.3C50.4 124.7 50.0667 122.8 50 120.6C49.9333 119 49.9 117.267 49.9 115.4C49.9 113.533 49.9333 111.733 50 110V110ZM67 110.5C67 109.767 67.0333 108.967 67.1 108.1C67.1 107.233 67.1 106.333 67.1 105.4C67.1 104.467 67.1 103.6 67.1 102.8C67.0333 101.933 67 101.167 67 100.5C66.9333 99.5667 66.8 98.7333 66.6 98C66.3333 97.3333 66 96.8 65.6 96.4C65.2 96 64.7333 95.8 64.2 95.8C63.6 95.8 62.9 96.0333 62.1 96.5C61.3 96.9667 60.6 97.5333 60 98.2C59.4 98.9333 58.9 99.7 58.5 100.5C58.1 101.367 57.8 102.267 57.6 103.2C57.3333 104.2 57.2 105.2 57.2 106.2C57.1333 106.933 57.1 107.7 57.1 108.5C57.1 109.367 57.1 110.267 57.1 111.2C57.1 112.133 57.1 113.033 57.1 113.9C57.1 114.767 57.1333 115.533 57.2 116.2C57.2667 118.133 57.7 119.533 58.5 120.4C59.3 121.2 60.5 121.167 62.1 120.3C63.7 119.367 64.8667 118 65.6 116.2C66.4 114.467 66.8667 112.567 67 110.5V110.5Z" fill="#44588F"/>
<path fill-rule="evenodd" clip-rule="evenodd" d="M98.4 90.5C98.4 91.1 98.4 91.8667 98.4 92.8C98.4 93.7333 98.4 94.5 98.4 95.1C98.3333 97.0333 98.0333 98.9667 97.5 100.9C96.9667 102.9 96.2667 104.767 95.4 106.5C94.4667 108.3 93.3667 109.933 92.1 111.4C90.8333 112.8 89.4 113.967 87.8 114.9C86.2667 115.833 84.8667 116.3 83.6 116.3C82.3333 116.3 81.2333 115.933 80.3 115.2C79.4333 114.467 78.7333 113.433 78.2 112.1C77.6667 110.7 77.3667 109.067 77.3 107.2C77.3 106.667 77.3 105.933 77.3 105C77.3 104.067 77.3 103.267 77.3 102.6C77.3667 100.733 77.6333 98.8 78.1 96.8C78.6333 94.8667 79.3667 93 80.3 91.2C81.2333 89.4667 82.3333 87.8333 83.6 86.3C84.8667 84.8333 86.2667 83.6667 87.8 82.8C89.4 81.8667 90.8333 81.4 92.1 81.4C93.3667 81.4 94.4667 81.7667 95.4 82.5C96.3333 83.2333 97.0333 84.2667 97.5 85.6C98.0333 87 98.3333 88.6333 98.4 90.5V90.5ZM84.3 102.9C84.3667 104.367 84.7333 105.333 85.4 105.8C86 106.333 86.8 106.3 87.8 105.7C88.8667 105.1 89.7 104.2 90.3 103C90.9667 101.733 91.3333 100.333 91.4 98.8C91.4667 98.2 91.5 97.5 91.5 96.7C91.5 95.9667 91.4667 95.3333 91.4 94.8C91.3333 93.3333 90.9667 92.3333 90.3 91.8C89.7 91.3333 88.8667 91.4 87.8 92C86.8 92.6 86 93.5 85.4 94.7C84.7333 95.9 84.3667 97.3 84.3 98.9C84.2333 99.5 84.2 100.167 84.2 100.9C84.2 101.7 84.2333 102.367 84.3 102.9Z" fill="#44588F"/>
<path fill-rule="evenodd" clip-rule="evenodd" d="M114.1 99.7C113.367 100.167 112.7 100.433 112.1 100.5C111.567 100.567 111.1 100.567 110.7 100.5C110.3 100.367 109.933 100.167 109.6 99.9C109.333 99.6333 109.1 99.4 108.9 99.2V111.8C108.9 112.267 108.8 112.7 108.6 113.1C108.4 113.567 108.167 113.867 107.9 114L103 116.8C102.733 117 102.5 117 102.3 116.8C102.1 116.6 102 116.267 102 115.8V76.8C102 76.4 102.1 75.9667 102.3 75.5C102.5 75.1 102.733 74.8 103 74.6L107.7 71.9C107.967 71.7667 108.2 71.8 108.4 72C108.6 72.2 108.7 72.5 108.7 72.9V74.3C108.967 73.7667 109.233 73.2 109.5 72.6C109.767 72 110.1 71.4333 110.5 70.9C110.9 70.3 111.4 69.7333 112 69.2C112.533 68.6667 113.233 68.1333 114.1 67.6C115.3 66.9333 116.4 66.5667 117.4 66.5C118.4 66.4333 119.3 66.7667 120.1 67.5C120.9 68.1667 121.533 69.2 122 70.6C122.467 72.0667 122.733 73.9333 122.8 76.2C122.8 76.8 122.8 77.6 122.8 78.6C122.8 79.6 122.8 80.4333 122.8 81.1C122.733 83.4333 122.467 85.6 122 87.6C121.533 89.6 120.9 91.3667 120.1 92.9C119.3 94.5 118.4 95.8667 117.4 97C116.4 98.1333 115.3 99.0333 114.1 99.7V99.7ZM115.9 84.3C115.967 83.1667 115.967 82.0667 115.9 81C115.767 79.6667 115.467 78.6333 115 77.9C114.467 77.1667 113.6 77.1333 112.4 77.8C111.8 78.1333 111.3 78.5667 110.9 79.1C110.5 79.6333 110.167 80.2 109.9 80.8C109.633 81.4 109.4 82.0333 109.2 82.7C109.067 83.3 108.967 83.9333 108.9 84.6C108.9 85.2 108.9 85.9 108.9 86.7C108.9 87.5 108.9 88.1667 108.9 88.7C108.967 89.3 109.067 89.8333 109.2 90.3C109.4 90.7667 109.633 91.1333 109.9 91.4C110.167 91.7333 110.5 91.9 110.9 91.9C111.3 91.9667 111.8 91.8333 112.4 91.5C113.6 90.8333 114.467 89.8333 115 88.5C115.467 87.1667 115.767 85.7667 115.9 84.3Z" fill="#44588F"/>
<path d="M137.8 76.2C137.8 75.7333 137.7 75.4333 137.5 75.3C137.367 75.1667 137.067 75.1667 136.6 75.3C136.133 75.4333 135.5 75.6333 134.7 75.9C133.967 76.1667 133.033 76.4667 131.9 76.8C129.9 77.4 128.4 77.1667 127.4 76.1C126.333 75.0333 125.8 73.1667 125.8 70.5C125.8 69.1 126 67.7 126.4 66.3C126.867 64.9 127.5 63.5333 128.3 62.2C129.033 60.8667 129.967 59.6333 131.1 58.5C132.233 57.3667 133.467 56.4333 134.8 55.7C136.133 54.9 137.367 54.4333 138.5 54.3C139.633 54.1 140.633 54.1667 141.5 54.5C142.3 54.7667 142.933 55.2667 143.4 56C143.867 56.7333 144.133 57.6 144.2 58.6C144.2 59 144.1 59.4333 143.9 59.9C143.7 60.3 143.467 60.6 143.2 60.8L138.6 63.4C138.267 63.6 138.033 63.6333 137.9 63.5C137.7 63.4333 137.5 63.3333 137.3 63.2C137.033 63.1333 136.733 63.1 136.4 63.1C136 63.1 135.467 63.3 134.8 63.7C134.2 64.0333 133.7 64.4333 133.3 64.9C132.9 65.4333 132.7 66 132.7 66.6C132.7 67 132.767 67.3 132.9 67.5C133.033 67.6333 133.3 67.6667 133.7 67.6C134.1 67.5333 134.633 67.3667 135.3 67.1C136.033 66.8333 136.967 66.5333 138.1 66.2C140.433 65.4 142.133 65.6333 143.2 66.9C144.267 68.1 144.8 69.9 144.8 72.3C144.8 73.6333 144.567 75 144.1 76.4C143.7 77.8667 143.067 79.2667 142.2 80.6C141.333 82 140.3 83.3 139.1 84.5C137.9 85.7667 136.533 86.8333 135 87.7C133.467 88.5667 132.1 89.0667 130.9 89.2C129.7 89.4 128.7 89.3 127.9 88.9C127.1 88.5 126.5 87.9333 126.1 87.2C125.7 86.4667 125.467 85.6333 125.4 84.7C125.4 84.3 125.5 83.8667 125.7 83.4C125.9 83 126.133 82.7 126.4 82.5L131.2 79.7C131.533 79.5667 131.733 79.5667 131.8 79.7C131.933 79.8333 132.1 79.9667 132.3 80.1C132.567 80.2333 132.867 80.3 133.2 80.3C133.6 80.3 134.2 80.1 135 79.7C135.733 79.2333 136.4 78.6667 137 78C137.533 77.4 137.8 76.8 137.8 76.2V76.2Z" fill="#44588F"/>
<path d="M155.3 61C155.3 61.4 155.167 61.8333 154.9 62.3C154.7 62.7667 154.467 63.0667 154.2 63.2L149.3 66C149.033 66.2 148.8 66.2 148.6 66C148.4 65.8 148.3 65.4667 148.3 65V39.4C148.3 38.9333 148.4 38.5 148.6 38.1C148.8 37.6333 149.033 37.3333 149.3 37.2L154.2 34.4C154.467 34.2 154.7 34.2 154.9 34.4C155.167 34.6 155.3 34.9333 155.3 35.4V61ZM155.3 73.7C155.3 74.1667 155.167 74.6333 154.9 75.1C154.7 75.5 154.467 75.8 154.2 76L149.3 78.8C149.033 78.9333 148.8 78.9 148.6 78.7C148.4 78.5 148.3 78.2 148.3 77.8V71.8C148.3 71.3333 148.4 70.8667 148.6 70.4C148.8 70 149.033 69.7 149.3 69.5L154.2 66.7C154.467 66.5667 154.7 66.6 154.9 66.8C155.167 67 155.3 67.3 155.3 67.7V73.7Z" fill="#44588F"/>
</svg>

<svg xmlns="http://www.w3.org/2000/svg" width="168" height="171" fill="none"><path fill="#33BFBF" d="m156.9 1.4 8.7 4.8c1.3.8 2.4 2.7 2.4 4.2v81.1c0 1.5-1 3.4-2.4 4.2l-129 74.4c-1.3.7-3.5.7-4.8 0l-8.7-4.9c-1.4-.7-2.5-2.6-2.5-4.2V80c0-1.6 1.1-3.5 2.5-4.2L152 1.4c1.4-.8 3.6-.8 4.9 0Z"/><path fill="#33BFBF" d="M34.2 168.7V87.6c0-1.6 1.1-3.4 2.4-4.2L165.6 9c1.4-.8 2.4-.1 2.4 1.4v81.1c0 1.5-1 3.4-2.4 4.2l-129 74.4c-1.3.7-2.4.1-2.4-1.4Z"/><path fill="#000" d="M36.6 170.1c-1.4.8-3.6.7-4.8 0l-8.7-4.9c-1.4-.7-2.5-2.6-2.5-4.2V80c0-.9.3-1.7.8-2.5l13.5 7.7c-.4.7-.7 1.6-.7 2.4v81.1c0 1.4 1 2.2 2.4 1.4Z" opacity=".2"/><path fill="#fff" d="M168 10c-.2-1.2-1.2-1.7-2.4-1L36.7 83.4c-.7.4-1.3 1-1.8 1.8l-13.5-7.7c.4-.7 1-1.4 1.7-1.7L152 1.4c1.4-.8 3.5-.8 4.9 0l8.7 4.8c1.2.7 2.2 2.3 2.4 3.8Z" opacity=".4"/><path fill="#33BFBF" d="M34.2 116.6 15 139.7s-13.1-7.5-13.5-7.8c-1.1-.6-1.4-2.2-.4-3.3l19.5-19.8 13.6 7.8Z"/><path fill="#000" d="M34.2 116.6 15 139.7s-13.1-7.5-13.5-7.8c-1.1-.6-1.4-2.2-.4-3.3l19.5-19.8 13.6 7.8Z" opacity=".1"/><path fill="#33BFBF" d="m34.2 137.5-17.7 2.6c-2 .3-3.2-2.2-1.8-3.7l19.5-19.8c1.9 0 1.9 20.9 0 20.9Z"/><path fill="#44588F" fill-rule="evenodd" d="M50 110c.067-2.267.4-4.533 1-6.8a31.362 31.362 0 0 1 2.3-6.5c1.067-2 2.3-3.867 3.7-5.6a18.924 18.924 0 0 1 5.1-4.1c1.867-1.133 3.533-1.7 5-1.7s2.7.433 3.7 1.3c1.067.867 1.867 2.133 2.4 3.8.533 1.6.833 3.5.9 5.7.067 1.667.1 3.433.1 5.3s-.033 3.633-.1 5.3a33.99 33.99 0 0 1-.9 6.8 28.2 28.2 0 0 1-2.4 6.5 24.735 24.735 0 0 1-3.7 5.6c-1.467 1.733-3.133 3.133-5 4.2-1.933 1.067-3.633 1.6-5.1 1.6-1.4.067-2.633-.367-3.7-1.3-1-.867-1.767-2.133-2.3-3.8-.6-1.6-.933-3.5-1-5.7-.067-1.6-.1-3.333-.1-5.2s.033-3.667.1-5.4Zm17 .5c0-.733.033-1.533.1-2.4V102.8c-.067-.867-.1-1.633-.1-2.3-.067-.933-.2-1.767-.4-2.5-.267-.667-.6-1.2-1-1.6-.4-.4-.867-.6-1.4-.6-.6 0-1.3.233-2.1.7-.8.467-1.5 1.033-2.1 1.7-.6.733-1.1 1.5-1.5 2.3-.4.867-.7 1.767-.9 2.7-.267 1-.4 2-.4 3-.067.733-.1 1.5-.1 2.3v5.4c0 .867.033 1.633.1 2.3.067 1.933.5 3.333 1.3 4.2.8.8 2 .767 3.6-.1 1.6-.933 2.767-2.3 3.5-4.1.8-1.733 1.267-3.633 1.4-5.7ZM98.4 90.5v4.6a24.99 24.99 0 0 1-.9 5.8c-.533 2-1.233 3.867-2.1 5.6a25.234 25.234 0 0 1-3.3 4.9 18.002 18.002 0 0 1-4.3 3.5c-1.533.933-2.933 1.4-4.2 1.4-1.267 0-2.367-.367-3.3-1.1-.867-.733-1.567-1.767-2.1-3.1-.533-1.4-.833-3.033-.9-4.9v-4.6c.067-1.867.333-3.8.8-5.8a28.738 28.738 0 0 1 2.2-5.6 30.036 30.036 0 0 1 3.3-4.9c1.267-1.467 2.667-2.633 4.2-3.5 1.6-.933 3.033-1.4 4.3-1.4s2.367.367 3.3 1.1c.933.733 1.633 1.767 2.1 3.1.533 1.4.833 3.033.9 4.9Zm-14.1 12.4c.067 1.467.433 2.433 1.1 2.9.6.533 1.4.5 2.4-.1 1.067-.6 1.9-1.5 2.5-2.7.667-1.267 1.033-2.667 1.1-4.2.067-.6.1-1.3.1-2.1 0-.733-.033-1.367-.1-1.9-.067-1.467-.433-2.467-1.1-3-.6-.467-1.433-.4-2.5.2-1 .6-1.8 1.5-2.4 2.7-.667 1.2-1.033 2.6-1.1 4.2-.067.6-.1 1.267-.1 2 0 .8.033 1.467.1 2ZM114.1 99.7c-.733.467-1.4.733-2 .8-.533.067-1 .067-1.4 0a3.523 3.523 0 0 1-1.1-.6l-.7-.7v12.6c0 .467-.1.9-.3 1.3-.2.467-.433.767-.7.9l-4.9 2.8c-.267.2-.5.2-.7 0-.2-.2-.3-.533-.3-1v-39c0-.4.1-.833.3-1.3.2-.4.433-.7.7-.9l4.7-2.7c.267-.133.5-.1.7.1.2.2.3.5.3.9v1.4c.267-.533.533-1.1.8-1.7.267-.6.6-1.167 1-1.7.4-.6.9-1.167 1.5-1.7.533-.533 1.233-1.067 2.1-1.6 1.2-.667 2.3-1.033 3.3-1.1 1-.067 1.9.267 2.7 1 .8.667 1.433 1.7 1.9 3.1.467 1.467.733 3.333.8 5.6v4.9c-.067 2.333-.333 4.5-.8 6.5s-1.1 3.767-1.9 5.3c-.8 1.6-1.7 2.967-2.7 4.1-1 1.133-2.1 2.033-3.3 2.7Zm1.8-15.4a27.108 27.108 0 0 0 0-3.3c-.133-1.333-.433-2.367-.9-3.1-.533-.733-1.4-.767-2.6-.1-.6.333-1.1.767-1.5 1.3-.4.533-.733 1.1-1 1.7-.267.6-.5 1.233-.7 1.9-.133.6-.233 1.233-.3 1.9v4.1c.067.6.167 1.133.3 1.6.2.467.433.833.7 1.1.267.333.6.5 1 .5.4.067.9-.067 1.5-.4 1.2-.667 2.067-1.667 2.6-3 .467-1.333.767-2.733.9-4.2Z" clip-rule="evenodd"/><path fill="#44588F" d="M137.8 76.2c0-.467-.1-.767-.3-.9-.133-.133-.433-.133-.9 0s-1.1.333-1.9.6c-.733.267-1.667.567-2.8.9-2 .6-3.5.367-4.5-.7-1.067-1.067-1.6-2.933-1.6-5.6 0-1.4.2-2.8.6-4.2.467-1.4 1.1-2.767 1.9-4.1a16.403 16.403 0 0 1 2.8-3.7 16.403 16.403 0 0 1 3.7-2.8c1.333-.8 2.567-1.267 3.7-1.4 1.133-.2 2.133-.133 3 .2.8.267 1.433.767 1.9 1.5.467.733.733 1.6.8 2.6 0 .4-.1.833-.3 1.3-.2.4-.433.7-.7.9l-4.6 2.6c-.333.2-.567.233-.7.1-.2-.067-.4-.167-.6-.3a3.72 3.72 0 0 0-.9-.1c-.4 0-.933.2-1.6.6-.6.333-1.1.733-1.5 1.2-.4.533-.6 1.1-.6 1.7 0 .4.067.7.2.9.133.133.4.167.8.1s.933-.233 1.6-.5a48.371 48.371 0 0 1 2.8-.9c2.333-.8 4.033-.567 5.1.7 1.067 1.2 1.6 3 1.6 5.4 0 1.333-.233 2.7-.7 4.1a14.83 14.83 0 0 1-1.9 4.2c-.867 1.4-1.9 2.7-3.1 3.9a17.43 17.43 0 0 1-4.1 3.2c-1.533.867-2.9 1.367-4.1 1.5-1.2.2-2.2.1-3-.3-.8-.4-1.4-.967-1.8-1.7-.4-.733-.633-1.567-.7-2.5 0-.4.1-.833.3-1.3.2-.4.433-.7.7-.9l4.8-2.8c.333-.133.533-.133.6 0 .133.133.3.267.5.4.267.133.567.2.9.2.4 0 1-.2 1.8-.6a9.673 9.673 0 0 0 2-1.7c.533-.6.8-1.2.8-1.8ZM155.3 61c0 .4-.133.833-.4 1.3-.2.467-.433.767-.7.9l-4.9 2.8c-.267.2-.5.2-.7 0-.2-.2-.3-.533-.3-1V39.4c0-.467.1-.9.3-1.3.2-.467.433-.767.7-.9l4.9-2.8c.267-.2.5-.2.7 0 .267.2.4.533.4 1V61Zm0 12.7c0 .467-.133.933-.4 1.4-.2.4-.433.7-.7.9l-4.9 2.8c-.267.133-.5.1-.7-.1-.2-.2-.3-.5-.3-.9v-6c0-.467.1-.933.3-1.4.2-.4.433-.7.7-.9l4.9-2.8c.267-.133.5-.1.7.1.267.2.4.5.4.9v6Z"/></svg>
